X:5
T:Back Off
M:C|
L:1/8
C: Paul Gitlitz 2005
R:Reel
B:Anna's Smile
N: After Dave Nerad told me to "Back Off" when I was trying to teach my wife some frailing on her new banjo, it became her favourite expression. 
K:D
"D"DFAd "F#m"{cd}c2Ac|"G"BAGB "D"ABde|"D"fedf "Em"geBe|"D"afdf "A"ecBA|!
"D"DFAd "F#m"{cd}c2Ac|"G"BAGB "D"ABde|fedf "A"edcB |1"A7"AGFE "D"D4:|2"D"AGFE "D"D2fg|! 
|:"D"afdf "Bm"bfdf|"D"afdf "G"gfed|"A"cdef "G"gfga|"E7"ba^gb "A7"a2f=g|!
"D"afdf "Bm"bfdf|"D"afdf "G"gfed|"A"cdef "G"gabg|"A7"edce "D"d4:|
